app/img/contact/ic_loc.svg

<svg width="21" height="30" viewBox="0 0 21 30" fill="none" xmlns="http://www.w3.org/2000/svg">
    <path d="M10.2486 0C4.92308 0 0.482422 4.04147 0.482422 9.76614C0.482422 11.941 1.32359 14.502 2.22638 16.1861L9.32209 29.4401C9.4108 29.609 9.54401 29.7505 9.7073 29.8492C9.8706 29.9478 10.0578 30 10.2486 30C10.4394 30 10.6265 29.9478 10.7898 29.8492C10.9531 29.7505 11.0863 29.609 11.175 29.4401L18.2707 16.1861C19.1735 14.502 20.0147 11.9409 20.0147 9.76614C20.0147 4.04147 15.574 0 10.2486 0ZM10.2486 2.09274C14.5547 2.09274 17.922 5.08868 17.922 9.76614C17.922 11.3403 17.1416 13.8643 16.4287 15.1942L10.2486 26.7152L4.06843 15.1942C3.35555 13.8644 2.57517 11.3403 2.57517 9.76614C2.57517 5.08868 5.94245 2.09274 10.2486 2.09274ZM10.2486 4.88307C7.5641 4.88307 5.36549 7.08171 5.36549 9.76614C5.36549 12.4506 7.56411 14.6492 10.2486 14.6492C12.933 14.6492 15.1316 12.4506 15.1316 9.76614C15.1316 7.08171 12.933 4.88307 10.2486 4.88307ZM10.2486 6.97581C11.802 6.97581 13.0389 8.21276 13.0389 9.76614C13.0389 11.3196 11.802 12.5565 10.2486 12.5565C8.69512 12.5565 7.45824 11.3196 7.45824 9.76614C7.45824 8.21276 8.69513 6.97581 10.2486 6.97581Z"
          fill="#7CEA57"/>
</svg>

<svg width="21" height="30" fill="none" xmlns="http://www.w3.org/2000/svg"><path d="M10.249 0C4.923 0 .482 4.041.482 9.766c0 2.175.842 4.736 1.744 6.42L9.322 29.44a1.047 1.047 0 0 0 1.853 0l7.096-13.254c.902-1.684 1.744-4.245 1.744-6.42C20.015 4.041 15.574 0 10.249 0Zm0 2.093c4.306 0 7.673 2.996 7.673 7.673 0 1.574-.78 4.098-1.493 5.428l-6.18 11.521-6.18-11.52c-.713-1.33-1.494-3.855-1.494-5.429 0-4.677 3.367-7.673 7.674-7.673Zm0 2.79c-2.685 0-4.884 2.199-4.884 4.883 0 2.685 2.2 4.883 4.884 4.883s4.883-2.198 4.883-4.883c0-2.684-2.199-4.883-4.883-4.883Zm0 2.093a2.775 2.775 0 0 1 2.79 2.79 2.775 2.775 0 0 1-2.79 2.79 2.775 2.775 0 0 1-2.79-2.79 2.775 2.775 0 0 1 2.79-2.79Z" fill="#7CEA57"/></svg>
